icons/lines/slider-vertical.svg

<svg xmlns="http://www.w3.org/2000/svg" width="24" height="24" viewBox="0 0 24 24" fill="none" stroke="currentColor" stroke-width="2" stroke-linecap="round" stroke-linejoin="round" >
  <path d="M7 6H17C17.62 6 18.17 6.02 18.66 6.09C21.29 6.38 22 7.62 22 11V13C22 16.38 21.29 17.62 18.66 17.91C18.17 17.98 17.62 18 17 18H7C6.38 18 5.83 17.98 5.34 17.91C2.71 17.62 2 16.38 2 13V11C2 7.62 2.71 6.38 5.34 6.09C5.83 6.02 6.38 6 7 6Z"/>
  <path d="M17.0001 18C17.6201 18 18.1701 17.98 18.6601 17.91C18.6701 18.05 18.6701 18.18 18.6701 18.33V18.67C18.6701 21.33 18.0001 22 15.3301 22H8.67008C6.00008 22 5.33008 21.33 5.33008 18.67V18.33C5.33008 18.18 5.33008 18.05 5.34008 17.91C5.83008 17.98 6.38008 18 7.00008 18H17.0001Z"/>
  <path d="M8.67008 2H15.3301C18.0001 2 18.6701 2.67 18.6701 5.33V5.67C18.6701 5.82 18.6701 5.95 18.6601 6.09C18.1701 6.02 17.6201 6 17.0001 6H7.00008C6.38008 6 5.83008 6.02 5.34008 6.09C5.33008 5.95 5.33008 5.82 5.33008 5.67V5.33C5.33008 2.67 6.00008 2 8.67008 2Z"/>
  </svg>

<svg xmlns="http://www.w3.org/2000/svg" width="24" height="24" viewBox="0 0 24 24" fill="none" stroke="currentColor" stroke-width="2" stroke-linecap="round" stroke-linejoin="round">
  <path d="M17 18c.62 0 1.17-.02 1.66-.09a6 6 0 0 1 .01.42v.34c0 2.66-.67 3.33-3.34 3.33H8.67c-2.67 0-3.34-.67-3.34-3.33v-.34a6 6 0 0 1 .01-.42c.49.07 1.04.09 1.66.09zc.62 0 1.17-.02 1.66-.09C21.29 17.62 22 16.38 22 13v-2c0-3.38-.71-4.62-3.34-4.91C18.17 6.02 17.62 6 17 6H7c-.62 0-1.17.02-1.66.09C2.71 6.38 2 7.62 2 11v2c0 3.38.71 4.62 3.34 4.91.49.07 1.04.09 1.66.09" />
  <path d="M7 6c-.62 0-1.17.02-1.66.09a6 6 0 0 1-.01-.42v-.34C5.33 2.67 6 2 8.67 2h6.66c2.67 0 3.34.67 3.34 3.33v.34a6 6 0 0 1-.01.42C18.17 6.02 17.62 6 17 6" />
</svg>
